X:60
T:Lancers Quadrilles No.5. Le4.060
B:L.Leadley MS#4 c1850
Z:Village Music Project, 2016 Steve Mansfield
M:C
L:1/8
N:* B2 in Mss
Q:2/4=100
K:Bb
f=efg f_edc | B2B2 BABc | d2d2 dcde | c2c2 cde=e |
f=efg f_edc | B2B2 BABc | d2d2 cBcd | B2b2 "*"B4 !segno! ||
B2B2 d3B | BAcA F2GA | BABc dcdB | BAcA F2z2 |
fede fgab | fede fgab | f2d2 cBcd | B2b2 "*"B4 |]

